X:1
T:Title
%%score ( 1 2 ) { 3 | 4 }
L:1/8
Q:1/4=90
M:3/4
K:Eb
V:1 treble nm="Grand Piano, Soprano"
V:2 treble 
V:3 treble nm="Choir Pad, I Am the Door (Williams)"
V:4 bass 
V:1
 [GB][GB]- [GB]/[GB]/ [GB]3 | [FA][EG]- [EG]/[EG]/ [EG]3 | [EG][B,F] [EG] [DA]3 | %3
w: By~Silas~Jones~Vail * * * *|||
 [DB][DA]- [DA]/[EG]/ [DF]3 | [DF]E- E/E/ E3 | EE- E/E/ [DF]3 | [EG][DA] [EB] [Ec]3 | %7
w: ||||
 [EB]B/A/ [EG] [DF]3 | [FB][GB] [Ge] [GB]3 | [EG][DF]- [DF]/[DG]/ E3- | E4 z2 |] %11
w: ||||
V:2
 x6 | x6 | x6 | x6 | x6 | x6 | x6 | z D z2 z2 | x6 | x6 | x6 |] %11
V:3
 EE- E/E/ E3 | DC- C/C/ C3 | C[K:bass]B, B, B,3 | B,B,- B,/B,/ B,3 | A,G,- G,/G,/ G,3 | %5
 G,G,- G,/G,/ B,3 | B,B, B, A,3 | B,B, B, B,3 | DE E E3 | B,[K:bass]A,- A,/B,/ G,3- | G,4 z2 |] %11
V:4
 E,E,- E,/E,/ E,3 | B,,C,- C,/C,/ C,3 | C,D, E, F,3 | F,F,- F,/E,/ B,,3 | B,,C,- C,/C,/ C,3 | %5
 C,C,- C,/C,/ B,,3 | E,F, .G,2 z2 | G,F, E, B,,3 | B,,E, E, E,3 | E,B,,- B,,/B,,/ E,3- | E,4 z2 |] %11

